img/subtract-1.svg

<svg fill="none" height="163" viewBox="0 0 163 163" width="163" xmlns="http://www.w3.org/2000/svg"><path clip-rule="evenodd" d="m121.014 152.226c24.671-13.847 41.345-40.292 41.345-70.6376 0-44.6868-36.158-80.912619-80.7611-80.912619-44.6032 0-80.76123 36.225819-80.76123 80.912619 0 26.3506 12.57313 49.7596 32.03693 64.5336l2.9625-3.711c3.9517-4.95 5.9816-11.165 5.7149-17.498l-1.865-44.2618c-.075-1.7814.2135-3.5597.8469-5.2256l12.1099-31.8363c.6906-1.8163 2.6411-2.8153 4.5152-2.3119 1.9749.5301 3.1723 2.5359 2.7039 4.5298l-7.279 31.0013c-.4754 2.0255-.4636 4.1353.0354 6.1555l5.8004 23.491c.5151 2.087 3.4116 2.255 4.1634.241l1.4624-3.918c1.1782-3.1569 1.8348-6.4853 1.9444-9.8539l.3697-11.364c.0769-2.3723 2.0727-4.225 4.4397-4.1213 2.0662.091 3.7683 1.6563 4.0346 3.711l3.4369 26.5072c1.1197 8.636-.3593 17.411-4.2485 25.2l-13.4214 26.882c6.6956 1.801 13.7348 2.762 20.998 2.762 1.8779 0 3.7408-.064 5.5867-.191l-1.4399-5.383c-1.4768-5.524-1.8588-11.284-1.1237-16.954l4.0416-31.169c.2663-2.055 1.9684-3.621 4.0345-3.711 2.367-.104 4.3629 1.749 4.4397 4.121l.3698 11.364c.1091 3.369.7661 6.697 1.9444 9.854l1.462 3.918c.752 2.013 3.649 1.846 4.164-.241l5.8-23.491c.499-2.02.511-4.13.035-6.156l-7.278-31.0007c-.469-1.9939.729-4.0001 2.703-4.5302 1.875-.503 3.825.4955 4.516 2.3119l12.109 31.836c.634 1.667.922 3.445.847 5.226l-1.579 37.49c-.094 2.233-.513 4.394-1.216 6.431z" fill="#f66" fill-rule="evenodd"/></svg>

<svg width="163" height="163" viewBox="0 0 163 163" fill="none" xmlns="http://www.w3.org/2000/svg">
<path fill-rule="evenodd" clip-rule="evenodd" d="M121.014 152.226C145.685 138.379 162.359 111.934 162.359 81.5884C162.359 36.9016 126.201 0.675781 81.5979 0.675781C36.9947 0.675781 0.83667 36.9016 0.83667 81.5884C0.83667 107.939 13.4098 131.348 32.8736 146.122L35.8361 142.411C39.7878 137.461 41.8177 131.246 41.551 124.913L39.686 80.6512C39.611 78.8698 39.8995 77.0915 40.5329 75.4256L52.6428 43.5893C53.3334 41.773 55.2839 40.774 57.158 41.2774C59.1329 41.8075 60.3303 43.8133 59.8619 45.8072L52.5829 76.8085C52.1075 78.834 52.1193 80.9438 52.6183 82.964L58.4187 106.455C58.9338 108.542 61.8303 108.71 62.5821 106.696L64.0445 102.778C65.2227 99.6211 65.8793 96.2927 65.9889 92.9241L66.3586 81.5601C66.4355 79.1878 68.4313 77.3351 70.7983 77.4388C72.8645 77.5298 74.5666 79.0951 74.8329 81.1498L78.2698 107.657C79.3895 116.293 77.9105 125.068 74.0213 132.857L60.5999 159.739C67.2955 161.54 74.3347 162.501 81.5979 162.501C83.4758 162.501 85.3387 162.437 87.1846 162.31L85.7447 156.927C84.2679 151.403 83.8859 145.643 84.621 139.973L88.6626 108.804C88.9289 106.749 90.631 105.183 92.6971 105.093C95.0641 104.989 97.06 106.842 97.1368 109.214L97.5066 120.578C97.6157 123.947 98.2727 127.275 99.451 130.432L100.913 134.35C101.665 136.363 104.562 136.196 105.077 134.109L110.877 110.618C111.376 108.598 111.388 106.488 110.912 104.462L103.634 73.4613C103.165 71.4674 104.363 69.4612 106.337 68.9311C108.212 68.4281 110.162 69.4266 110.853 71.243L122.962 103.079C123.596 104.746 123.884 106.524 123.809 108.305L122.23 145.795C122.136 148.028 121.717 150.189 121.014 152.226Z" fill="#FF6666"/>
</svg>
